X:18
T:The Dogs among the Bushes
Z:Philippe Murphy
R:reel
M:4/4
L:1/8
K:G
BGG2 DGG2 | BGG2 cedc | BGG2 DGG2 | AFF2 fdcA |
BGG2 DGG2 | BGG2 c2cA | BGG2 DGFG | AFF2 fdcA ||
Bggf g3f | dgg2 bgaf | dffe f3e | dff2 aff2 |
dggf g3f | dgg2 bgag | bgg2 aggf | d^cde fd=cA ||
